icon-themes/elementary_svg/extensions/res/update/ui/onlineupdate_26.svg

<svg viewBox="0 0 24 24" xmlns="http://www.w3.org/2000/svg" xmlns:xlink="http://www.w3.org/1999/xlink"><radialGradient id="a" cx="4.992979" cy="43.5" gradientTransform="matrix(2.003784 0 0 1.4 27.98813 -17.4)" gradientUnits="userSpaceOnUse" r="2.5" xlink:href="#b"/><linearGradient id="b"><stop offset="0" stop-color="#181818"/><stop offset="1" stop-color="#181818" stop-opacity="0"/></linearGradient><radialGradient id="c" cx="4.992979" cy="43.5" gradientTransform="matrix(2.003784 0 0 1.4 -20.01187 -104.4)" gradientUnits="userSpaceOnUse" r="2.5" xlink:href="#b"/><linearGradient id="d" gradientUnits="userSpaceOnUse" x1="25.058096" x2="25.058096" y1="47.027729" y2="39.999443"><stop offset="0" stop-color="#181818" stop-opacity="0"/><stop offset=".5" stop-color="#181818"/><stop offset="1" stop-color="#181818" stop-opacity="0"/></linearGradient><radialGradient id="e" cx="6.730414" cy="9.957108" fx="6.200184" gradientTransform="matrix(0 4.6270127 -5.6804933 0 68.966159 -38.745064)" gradientUnits="userSpaceOnUse" r="12.671875"><stop offset="0" stop-color="#ffcd7d"/><stop offset=".26238" stop-color="#fc8f36"/><stop offset=".704952" stop-color="#e23a0e"/><stop offset="1" stop-color="#ac441f"/></radialGradient><linearGradient id="f" gradientUnits="userSpaceOnUse" x1="12.001242" x2="12.001242" y1="3.269042" y2="20.728507"><stop offset="0" stop-color="#fff"/><stop offset=".06316455" stop-color="#fff" stop-opacity=".235294"/><stop offset=".95056331" stop-color="#fff" stop-opacity=".156863"/><stop offset="1" stop-color="#fff" stop-opacity=".392157"/></linearGradient><linearGradient id="g" gradientUnits="userSpaceOnUse" x1="14.104288" x2="14.104288" y1="2.499999" y2="21.999999"><stop offset="0" stop-color="#fff5ef"/><stop offset="1" stop-color="#fef8dd"/></linearGradient><g opacity=".4" transform="matrix(.5789476 0 0 .42857134 -1.894738 2.857146)"><path d="m38 40h5v7h-5z" fill="url(#a)"/><path d="m-10-47h5v7h-5z" fill="url(#c)" transform="scale(-1)"/><path d="m10 40h28v7.000001h-28z" fill="url(#d)"/></g><rect fill="url(#e)" height="19.000002" rx="1" width="19.000002" x="2.499998" y="2.500026"/><path d="m3.501249 3.498774h17v17h-17z" fill="none" opacity=".5" stroke="url(#f)" stroke-linecap="round" stroke-linejoin="round"/><rect fill="none" height="19.000002" opacity=".4" rx="1" stroke="#640000" stroke-linecap="round" stroke-linejoin="round" width="19.000002" x="2.499998" y="2.500026"/><path d="m11.999999 5.9856899c-3.0203873 0-5.5564271 2.0770399-6.2809751 4.8747871-.077578.294422.1798875.626635.4843539.624972h1.48431c.2068702-.002.404634-.147035.46873-.343735.5514049-1.5875288 2.0617562-2.7186302 3.8435812-2.7186302 1.066803 0 1.994194.456695 2.718633 1.1249504l-1.578056 1.5780558c-.291266.275984-.04167.872856.359359.859337h4.499802c.262062.001.500985-.237916.49998-.499978v-4.4998021c.013521-.401025-.583354-.6506276-.859338-.3593599l-1.187449 1.1874489c-1.164246-1.112185-2.719309-1.828046-4.452931-1.828046zm-6.0466112 7.0144301c-.2460897.0223-.4550582.252887-.4531049.499977v4.499804c-.013521.401025.5833543.650628.859338.35936l1.4843098-1.484311c1.1299939.966978 2.5525893 1.62493 4.1560683 1.62493 3.02039 0 5.556429-2.077039 6.280977-4.874788.07758-.294422-.179888-.626635-.484354-.624972h-1.48431c-.20687.002-.404634.147035-.46873.343735-.551404 1.587529-2.061755 2.718631-3.843583 2.718631-.935279 0-1.750733-.372399-2.4373934-.90621l1.2968194-1.296819c.291266-.275984.04167-.872856-.359359-.859337h-4.4998051c-.015612-.000735-.031258-.000735-.046873 0z" fill="#ae2109" opacity=".15"/><path d="m12 6.5c-2.792656 0-5.12782 1.916531-5.796875 4.5h1.484375c.619757-1.784316 2.317831-3.0625 4.3125-3.0625 1.387271 0 2.631388.616947 3.46875 1.59375l-1.96875 1.96875h4.5v-4.5l-1.515625 1.515625c-1.095564-1.239377-2.699621-2.015625-4.484375-2.015625zm-6 7v4.5l1.765625-1.765625c1.082584 1.089739 2.576235 1.765625 4.234375 1.765625 2.792657 0 5.12782-1.916531 5.796875-4.5h-1.484375c-.619756 1.784316-2.317832 3.0625-4.3125 3.0625-1.25885 0-2.392665-.519627-3.21875-1.34375l1.71875-1.71875z" fill="#ae2109" opacity=".3"/><path d="m12 6c-2.792656 0-5.12782 1.916531-5.796875 4.5h1.484375c.619757-1.784316 2.317831-3.0625 4.3125-3.0625 1.387271 0 2.631388.616947 3.46875 1.59375l-1.96875 1.96875h4.5v-4.5l-1.515625 1.515625c-1.095564-1.239377-2.699621-2.015625-4.484375-2.015625zm-6 7v4.5l1.765625-1.765625c1.082584 1.089739 2.576235 1.765625 4.234375 1.765625 2.792657 0 5.12782-1.916531 5.796875-4.5h-1.484375c-.619756 1.784316-2.317832 3.0625-4.3125 3.0625-1.25885 0-2.392665-.519628-3.21875-1.34375l1.71875-1.71875z" fill="url(#g)"/></svg>

<?xml version="1.0" encoding="UTF-8" standalone="no"?>
<svg
   xmlns:dc="http://purl.org/dc/elements/1.1/"
   xmlns:cc="http://creativecommons.org/ns#"
   xmlns:rdf="http://www.w3.org/1999/02/22-rdf-syntax-ns#"
   xmlns:svg="http://www.w3.org/2000/svg"
   xmlns="http://www.w3.org/2000/svg"
   xmlns:xlink="http://www.w3.org/1999/xlink"
   xmlns:sodipodi="http://sodipodi.sourceforge.net/DTD/sodipodi-0.dtd"
   xmlns:inkscape="http://www.inkscape.org/namespaces/inkscape"
   viewBox="0 0 24 24"
   id="svg2"
   version="1.1"
   inkscape:version="0.91 r13725"
   sodipodi:docname="onlineupdate_26.svg">
  <metadata
     id="metadata10">
    <rdf:RDF>
      <cc:Work
         rdf:about="">
        <dc:format>image/svg+xml</dc:format>
        <dc:type
           rdf:resource="http://purl.org/dc/dcmitype/StillImage" />
      </cc:Work>
    </rdf:RDF>
  </metadata>
  <defs
     id="defs8">
    <radialGradient
       cx="4.9929786"
       cy="43.5"
       r="2.5"
       fx="4.9929786"
       fy="43.5"
       id="radialGradient3082-6"
       xlink:href="#linearGradient3688-166-749-9"
       gradientUnits="userSpaceOnUse"
       gradientTransform="matrix(2.003784,0,0,1.4,27.98813,-17.4)" />
    <linearGradient
       id="linearGradient3688-166-749-9">
      <stop
         id="stop2883-2"
         style="stop-color:#181818;stop-opacity:1"
         offset="0" />
      <stop
         id="stop2885-2"
         style="stop-color:#181818;stop-opacity:0"
         offset="1" />
    </linearGradient>
    <radialGradient
       cx="4.9929786"
       cy="43.5"
       r="2.5"
       fx="4.9929786"
       fy="43.5"
       id="radialGradient3084-4"
       xlink:href="#linearGradient3688-166-749-9"
       gradientUnits="userSpaceOnUse"
       gradientTransform="matrix(2.003784,0,0,1.4,-20.01187,-104.4)" />
    <linearGradient
       x1="25.058096"
       y1="47.027729"
       x2="25.058096"
       y2="39.999443"
       id="linearGradient3086-8"
       xlink:href="#linearGradient3702-501-757-1"
       gradientUnits="userSpaceOnUse" />
    <linearGradient
       id="linearGradient3702-501-757-1">
      <stop
         id="stop2895-2"
         style="stop-color:#181818;stop-opacity:0"
         offset="0" />
      <stop
         id="stop2897-89"
         style="stop-color:#181818;stop-opacity:1"
         offset="0.5" />
      <stop
         id="stop2899-36"
         style="stop-color:#181818;stop-opacity:0"
         offset="1" />
    </linearGradient>
    <radialGradient
       cx="6.7304144"
       cy="9.9571075"
       r="12.671875"
       fx="6.2001843"
       fy="9.9571075"
       id="radialGradient3118"
       xlink:href="#linearGradient2867-449-88-871-390-598-476-591-434-148-57-177-8-3-3-6-4-8-8-8"
       gradientUnits="userSpaceOnUse"
       gradientTransform="matrix(0,4.6270127,-5.6804933,0,68.966159,-38.745064)" />
    <linearGradient
       id="linearGradient2867-449-88-871-390-598-476-591-434-148-57-177-8-3-3-6-4-8-8-8">
      <stop
         id="stop3750-1-0-7-6-6-1-3-9"
         style="stop-color:#ffcd7d;stop-opacity:1"
         offset="0" />
      <stop
         id="stop3752-3-7-4-0-32-8-923-0"
         style="stop-color:#fc8f36;stop-opacity:1"
         offset="0.26238" />
      <stop
         id="stop3754-1-8-5-2-7-6-7-1"
         style="stop-color:#e23a0e;stop-opacity:1"
         offset="0.704952" />
      <stop
         id="stop3756-1-6-2-6-6-1-96-6"
         style="stop-color:#ac441f;stop-opacity:1"
         offset="1" />
    </linearGradient>
    <linearGradient
       x1="23.99999"
       y1="4.999989"
       x2="23.99999"
       y2="43"
       id="linearGradient3110"
       xlink:href="#linearGradient3924-64"
       gradientUnits="userSpaceOnUse"
       gradientTransform="matrix(0.45945947,0,0,0.45945947,0.9742189,0.9717503)" />
    <linearGradient
       id="linearGradient3924-64">
      <stop
         id="stop3926-3-6"
         style="stop-color:#ffffff;stop-opacity:1"
         offset="0" />
      <stop
         id="stop3928-0"
         style="stop-color:#ffffff;stop-opacity:0.23529412"
         offset="0.06316455" />
      <stop
         id="stop3930-3-59"
         style="stop-color:#ffffff;stop-opacity:0.15686275"
         offset="0.95056331" />
      <stop
         id="stop3932-0"
         style="stop-color:#ffffff;stop-opacity:0.39215687"
         offset="1" />
    </linearGradient>
    <linearGradient
       x1="167.98311"
       y1="6.8325434"
       x2="167.98311"
       y2="61.692036"
       id="linearGradient3126"
       xlink:href="#linearGradient5803-1"
       gradientUnits="userSpaceOnUse"
       gradientTransform="matrix(0.35545351,0,0,0.35545351,-45.605898,0.0713484)" />
    <linearGradient
       id="linearGradient5803-1">
      <stop
         id="stop5805-6"
         style="stop-color:#fff5ef;stop-opacity:1"
         offset="0" />
      <stop
         id="stop5807-3"
         style="stop-color:#fef8dd;stop-opacity:1"
         offset="1" />
    </linearGradient>
  </defs>
  <sodipodi:namedview
     pagecolor="#ffffff"
     bordercolor="#666666"
     borderopacity="1"
     objecttolerance="10"
     gridtolerance="10"
     guidetolerance="10"
     inkscape:pageopacity="0"
     inkscape:pageshadow="2"
     inkscape:window-width="709"
     inkscape:window-height="480"
     id="namedview6"
     showgrid="false"
     inkscape:zoom="9.8333333"
     inkscape:cx="12"
     inkscape:cy="12"
     inkscape:window-x="0"
     inkscape:window-y="32"
     inkscape:window-maximized="0"
     inkscape:current-layer="svg2" />
  <g
     id="g4234">
    <g
       style="display:inline"
       id="g2036-4"
       transform="matrix(0.55,0,0,0.3333336,-1.2000011,7.33333)">
      <g
         style="opacity:0.4"
         id="g3712-8"
         transform="matrix(1.052632,0,0,1.285713,-1.263158,-13.42854)">
        <rect
           style="fill:url(#radialGradient3082-6);fill-opacity:1;stroke:none"
           id="rect2801-6"
           y="40"
           x="38"
           height="7"
           width="5" />
        <rect
           style="fill:url(#radialGradient3084-4);fill-opacity:1;stroke:none"
           id="rect3696-20"
           transform="scale(-1,-1)"
           y="-47"
           x="-10"
           height="7"
           width="5" />
        <rect
           style="fill:url(#linearGradient3086-8);fill-opacity:1;stroke:none"
           id="rect3700-5"
           y="40"
           x="10"
           height="7.0000005"
           width="28" />
      </g>
    </g>
    <rect
       style="color:#000000;display:inline;overflow:visible;visibility:visible;fill:url(#radialGradient3118);fill-opacity:1;fill-rule:nonzero;stroke:none;stroke-width:0.99999994;marker:none;enable-background:accumulate"
       id="rect5505-21-8"
       y="2.5000257"
       x="2.4999981"
       ry="1"
       rx="1"
       height="19.000002"
       width="19.000002" />
    <rect
       style="opacity:0.5;fill:none;stroke:url(#linearGradient3110);stroke-width:0.99999988;stroke-linecap:round;stroke-linejoin:round;stroke-miterlimit:4;stroke-dasharray:none;stroke-dashoffset:0;stroke-opacity:1"
       id="rect6741-9"
       y="3.4987736"
       x="3.5012493"
       height="17"
       width="17" />
    <rect
       style="color:#000000;display:inline;overflow:visible;visibility:visible;opacity:0.4;fill:none;stroke:#640000;stroke-width:1;stroke-linecap:round;stroke-linejoin:round;stroke-miterlimit:4;stroke-dasharray:none;stroke-dashoffset:0;stroke-opacity:1;marker:none;enable-background:accumulate"
       id="rect5505-21-8-1"
       y="2.5000257"
       x="2.4999981"
       ry="1"
       rx="1"
       height="19.000002"
       width="19.000002" />
    <path
       inkscape:connector-curvature="0"
       style="color:#000000;display:inline;overflow:visible;visibility:visible;opacity:0.15;fill:#ae2109;fill-opacity:1;fill-rule:nonzero;stroke:none;stroke-width:1;marker:none;enable-background:accumulate"
       id="path4451"
       d="m 11.999999,5.9856899 c -3.0203873,0 -5.5564271,2.0770399 -6.2809751,4.8747871 -0.077578,0.294422 0.1798875,0.626635 0.4843539,0.624972 l 1.48431,0 c 0.2068702,-0.002 0.404634,-0.147035 0.46873,-0.343735 0.5514049,-1.5875288 2.0617562,-2.7186302 3.8435812,-2.7186302 1.066803,0 1.994194,0.456695 2.718633,1.1249504 L 13.140576,11.12609 c -0.291266,0.275984 -0.04167,0.872856 0.359359,0.859337 l 4.499802,0 c 0.262062,0.001 0.500985,-0.237916 0.49998,-0.499978 l 0,-4.4998021 C 18.513238,6.5846219 17.916363,6.3350193 17.640379,6.626287 L 16.45293,7.8137359 C 15.288684,6.7015509 13.733621,5.9856899 11.999999,5.9856899 Z M 5.9533878,13.00012 c -0.2460897,0.0223 -0.4550582,0.252887 -0.4531049,0.499977 l 0,4.499804 c -0.013521,0.401025 0.5833543,0.650628 0.859338,0.35936 L 7.8439307,16.87495 c 1.1299939,0.966978 2.5525893,1.62493 4.1560683,1.62493 3.02039,0 5.556429,-2.077039 6.280977,-4.874788 0.07758,-0.294422 -0.179888,-0.626635 -0.484354,-0.624972 l -1.48431,0 c -0.20687,0.002 -0.404634,0.147035 -0.46873,0.343735 -0.551404,1.587529 -2.061755,2.718631 -3.843583,2.718631 -0.935279,0 -1.750733,-0.372399 -2.4373934,-0.90621 l 1.2968194,-1.296819 c 0.291266,-0.275984 0.04167,-0.872856 -0.359359,-0.859337 l -4.4998051,0 c -0.015612,-7.35e-4 -0.031258,-7.35e-4 -0.046873,0 z" />
    <path
       inkscape:connector-curvature="0"
       style="color:#000000;display:inline;overflow:visible;visibility:visible;opacity:0.3;fill:#ae2109;fill-opacity:1;fill-rule:nonzero;stroke:none;stroke-width:1;marker:none;enable-background:accumulate"
       id="path4285-6"
       d="M 12,6.5 C 9.207344,6.5 6.87218,8.416531 6.203125,11 L 7.6875,11 C 8.307257,9.215684 10.005331,7.9375 12,7.9375 c 1.387271,0 2.631388,0.616947 3.46875,1.59375 L 13.5,11.5 18,11.5 18,7 16.484375,8.515625 C 15.388811,7.276248 13.784754,6.5 12,6.5 Z m -6,7 0,4.5 1.765625,-1.765625 C 8.848209,17.324114 10.34186,18 12,18 c 2.792657,0 5.12782,-1.916531 5.796875,-4.5 l -1.484375,0 c -0.619756,1.784316 -2.317832,3.0625 -4.3125,3.0625 -1.25885,0 -2.392665,-0.519627 -3.21875,-1.34375 L 10.5,13.5 Z" />
    <path
       inkscape:connector-curvature="0"
       style="color:#000000;display:inline;overflow:visible;visibility:visible;fill:url(#linearGradient3126);fill-opacity:1;fill-rule:nonzero;stroke:none;stroke-width:1;marker:none;enable-background:accumulate"
       id="path4285"
       d="M 12,6 C 9.207344,6 6.87218,7.916531 6.203125,10.5 l 1.484375,0 C 8.307257,8.715684 10.005331,7.4375 12,7.4375 c 1.387271,0 2.631388,0.616947 3.46875,1.59375 L 13.5,11 18,11 18,6.5 16.484375,8.015625 C 15.388811,6.776248 13.784754,6 12,6 Z m -6,7 0,4.5 1.765625,-1.765625 C 8.848209,16.824114 10.34186,17.5 12,17.5 c 2.792657,0 5.12782,-1.916531 5.796875,-4.5 L 16.3125,13 c -0.619756,1.784316 -2.317832,3.0625 -4.3125,3.0625 -1.25885,0 -2.392665,-0.519628 -3.21875,-1.34375 L 10.5,13 Z" />
  </g>
</svg>
